suite-common/icons/assets/icons/caretCircleDown.svg

<svg width="14" height="14" viewBox="0 0 14 14" fill="none" xmlns="http://www.w3.org/2000/svg">
    <path fill-rule="evenodd" clip-rule="evenodd" d="M6.45348 0.280704C5.60852 0.347364 4.78458 0.577634 4.02748 0.958704C2.68669 1.60497 1.60475 2.68691 0.958484 4.0277C0.475484 5.0097 0.271484 5.8917 0.271484 7.0007C0.271484 8.1097 0.475484 8.9917 0.958484 9.9737C1.60448 11.3147 2.6865 12.3967 4.02748 13.0427C5.00948 13.5257 5.89148 13.7297 7.00048 13.7297C8.11048 13.7297 8.99448 13.5257 9.97348 13.0427C11.3149 12.3973 12.3971 11.3151 13.0425 9.9737C13.5255 8.9947 13.7295 8.1107 13.7295 7.0007C13.7295 5.8917 13.5255 5.0097 13.0425 4.0277C12.3962 2.68691 11.3143 1.60497 9.97348 0.958704C9.34737 0.641043 8.67287 0.429502 7.97748 0.332704C7.47206 0.269843 6.96202 0.25244 6.45348 0.280704ZM7.58748 1.7757C8.81525 1.91628 9.95425 2.48489 10.8045 3.3817C11.7315 4.35117 12.2512 5.63945 12.2562 6.98082C12.2612 8.32219 11.7513 9.61432 10.8315 10.5907C10.3436 11.1139 9.75381 11.5317 9.09832 11.8182C8.44284 12.1047 7.73562 12.254 7.02026 12.2567C6.30489 12.2594 5.59656 12.1155 4.93892 11.834C4.28128 11.5525 3.68828 11.1392 3.19648 10.6197C2.39248 9.7777 1.91148 8.7427 1.77148 7.5497C1.7323 7.05797 1.75009 6.56335 1.82448 6.0757C2.02602 4.96765 2.57639 3.953 3.39527 3.17981C4.21415 2.40662 5.2587 1.91536 6.37648 1.7777C6.7794 1.74354 7.18446 1.74287 7.58748 1.7757ZM4.49848 5.5577C4.32279 5.62699 4.17675 5.75536 4.08548 5.9207C4.03948 6.0057 4.02748 6.0737 4.02748 6.2537C4.02748 6.4527 4.03648 6.4957 4.09848 6.6007C4.17948 6.7367 6.43348 9.2487 6.55648 9.3407C6.69656 9.44589 6.87128 9.49413 7.04548 9.4757C7.27948 9.4617 7.38648 9.4077 7.58348 9.2057C7.96248 8.8147 9.83748 6.7097 9.90248 6.6007C9.96448 6.4957 9.97348 6.4527 9.97348 6.2537C9.97348 5.9857 9.92548 5.8737 9.73848 5.7007C9.59877 5.5754 9.41642 5.50829 9.22882 5.51313C9.04121 5.51796 8.86256 5.59437 8.72948 5.7267C8.67948 5.7747 8.27448 6.2187 7.83048 6.7137C7.38548 7.2087 7.01248 7.6137 7.00048 7.6137C6.98848 7.6137 6.60548 7.1967 6.14848 6.6877C5.84405 6.34156 5.53061 6.00345 5.20848 5.6737C5.07118 5.57205 4.90623 5.5145 4.73548 5.5087C4.65467 5.51451 4.57498 5.53098 4.49848 5.5577Z" fill="black"/>
</svg>

<svg xmlns="http://www.w3.org/2000/svg" fill="none" viewBox="0 0 14 14">
  <path fill="#000" fill-rule="evenodd" d="M6.453.28a6.5 6.5 0 0 0-2.426.68A6.58 6.58 0 0 0 .958 4.028C.475 5.01.271 5.892.271 7s.204 1.99.687 2.973a6.57 6.57 0 0 0 3.07 3.069c.981.483 1.863.687 2.972.687 1.11 0 1.994-.204 2.973-.687a6.56 6.56 0 0 0 3.07-3.07c.482-.978.687-1.862.687-2.972s-.205-1.991-.687-2.973a6.58 6.58 0 0 0-3.07-3.07A6.4 6.4 0 0 0 7.977.334 8.5 8.5 0 0 0 6.453.28m1.134 1.496a5.26 5.26 0 0 1 3.218 1.606 5.236 5.236 0 0 1 .027 7.209 5.24 5.24 0 0 1-7.636.029c-.804-.842-1.285-1.877-1.425-3.07a6.4 6.4 0 0 1 .053-1.474 5.28 5.28 0 0 1 4.552-4.298 7.3 7.3 0 0 1 1.211-.002M4.498 5.558a.8.8 0 0 0-.413.363c-.046.085-.058.153-.058.333 0 .199.01.242.071.347.081.136 2.335 2.648 2.458 2.74.14.105.315.153.49.135.233-.014.34-.068.537-.27.38-.391 2.254-2.496 2.32-2.605.061-.105.07-.148.07-.347 0-.268-.048-.38-.235-.553a.735.735 0 0 0-1.009.026c-.05.048-.455.492-.899.987-.445.495-.818.9-.83.9s-.395-.417-.852-.926a26 26 0 0 0-.94-1.014.84.84 0 0 0-.473-.165 1 1 0 0 0-.237.049" clip-rule="evenodd"/>
</svg>
